X:243
T:Serra ur Matthias Silvius Svenonis notbok
T:(SmM I:243)
R:Polska
B:Småländsk Musiktradition
S:Matthias Silvius Svenonis
O:Kalmar, Småland
N:1721
M:3/4
L:1/8
K:C
ed/c/ d2 G2|cd ef g2|ed/c/ dc dG|c>d c4:||:eg ^f2 g2|ag ^f2 g2|
eg ^f2 g2|ag ^f2 g2|ed/c/ d2 G2|cd ef g2|ed/c/ dc dG|c>d c4:|

